X: 1
T: Lick The Ladle Susan
M: 4/4
L: 1/8
R: reel
K: Gmaj
DEGA B2d2 |edBG AGEG | DEGB B2d2| ABAF G2G2 :|
g2 (3ggg e2d2 | eaab aged| Bdef gedB|ABAF G2G2 :|
